Adwaita++-Dark/actions/16/system-lock-screen.svg

<svg height="16" width="16" xmlns="http://www.w3.org/2000/svg">
  <path d="m8 1c-2.216 0-4 1.784-4 4v2h-1c-.554 0-1 .446-1 1v6c0 .554.446 1 1 1h10c.554 0 1-.446 1-1v-6c0-.554-.446-1-1-1h-1v-2c0-2.216-1.784-4-4-4zm0 2c1.108 0 2 .892 2 2v2h-4v-2c0-1.108.892-2 2-2z" fill="#e6ddff"/>
</svg>

<svg xmlns="http://www.w3.org/2000/svg" width="16" height="16" version="1.1">
 <path style="fill:#E6DDFF" d="M 8,1 C 5.784,1 4,2.784 4,5 V 7 H 3 C 2.446,7 2,7.446 2,8 V 14 C 2,14.554 2.446,15 3,15 H 13 C 13.554,15 14,14.554 14,14 V 8 C 14,7.446 13.554,7 13,7 H 12 V 5 C 12,2.784 10.216,1 8,1 Z M 8,3 C 9.108,3 10,3.892 10,5 V 7 H 6 V 5 C 6,3.892 6.892,3 8,3 Z"/>
</svg>
